resources/svg/compass.svg

<svg xmlns="http://www.w3.org/2000/svg" viewBox="0 0 15 15" fill="currentColor"><path d="M5.61805 9.38198L6.87269 6.87269L9.38198 5.61805L8.12734 8.12734L5.61805 9.38198Z" fill="black"/><path fill-rule="evenodd" clip-rule="evenodd" d="M0 7.5C0 3.35786 3.35786 0 7.5 0C11.6421 0 15 3.35786 15 7.5C15 11.6421 11.6421 15 7.5 15C3.35786 15 0 11.6421 0 7.5ZM10.9472 4.72362C11.0435 4.53113 11.0057 4.29864 10.8536 4.14646C10.7014 3.99428 10.4689 3.95655 10.2764 4.0528L6.27641 6.0528C6.17964 6.10118 6.10118 6.17964 6.0528 6.27641L4.0528 10.2764C3.95655 10.4689 3.99428 10.7014 4.14646 10.8536C4.29864 11.0057 4.53113 11.0435 4.72362 10.9472L8.72362 8.94723C8.82038 8.89885 8.89885 8.82038 8.94723 8.72362L10.9472 4.72362Z" fill="black"/></svg>

<svg xmlns="http://www.w3.org/2000/svg" viewBox="0 0 15 15" fill="currentColor"><path d="M5.618 9.382l1.255-2.51 2.509-1.254-1.255 2.51-2.509 1.254z" fill="currentColor"/><path fill-rule="evenodd" clip-rule="evenodd" d="M0 7.5a7.5 7.5 0 1115 0 7.5 7.5 0 01-15 0zm10.947-2.776a.5.5 0 00-.67-.671l-4 2a.5.5 0 00-.224.223l-2 4a.5.5 0 00.67.671l4-2a.5.5 0 00.224-.223l2-4z" fill="currentColor"/></svg>
